X: 12815
T: Feed The Ducks
R: jig
M: 6/8
K: Amajor
|:EFA ABc|BAF FEF|Ac/B/A efc|ecB BAF|
EFA ABc|BAF FEF|Ac/B/A efc|1 ecB A2F:|2 ecB Ace||
eff fec|efg gaf|ecA EFA|EFA Bce|
eff fec|efg gaf|eaf ecB|cAB cde|
eff fec|efg gaf|ecA EFA|EFA cAB|
Ac/B/A fAe|Ac/B/A fAe|afe afe|fec ecA||

